svg/charges/tools/spade.svg

<?xml version="1.0" encoding="UTF-8" standalone="no"?>
<svg
   xmlns:dc="http://purl.org/dc/elements/1.1/"
   xmlns:cc="http://creativecommons.org/ns#"
   xmlns:rdf="http://www.w3.org/1999/02/22-rdf-syntax-ns#"
   xmlns:svg="http://www.w3.org/2000/svg"
   xmlns="http://www.w3.org/2000/svg"
   version="1.1"
   width="94.5"
   height="351"
   id="svg28">
  <defs
     id="defs5">
    <clipPath
       id="artboard_clip_path">
      <path
         d="M 130.5 63 L 225 63 L 225 414 L 130.5 414 Z"
         id="path2" />
    </clipPath>
  </defs>
  <metadata
     id="metadata7"> Produced by OmniGraffle 7.7.1 
    <dc:date>2018-03-13 06:46:41 +0000</dc:date>
<dc:title>Traceable heraldic art http://heraldicart.org/credits.html</dc:title>
<rdf:RDF>
  <cc:Work
     rdf:about="">
    <dc:format>image/svg+xml</dc:format>
    <dc:type
       rdf:resource="http://purl.org/dc/dcmitype/StillImage" />
    <dc:title></dc:title>
  </cc:Work>
</rdf:RDF>
</metadata>
  <g
     id="Spade"
     fill-opacity="1"
     stroke-dasharray="none"
     stroke="none"
     stroke-opacity="1"
     fill="#ffff00"
     transform="translate(-131.5385,-62.999999)">
    <title
       id="title9">Spade</title>
    <g
       id="Spade: Layer 2">
      <title
         id="title11">Layer 2</title>
      <g
         id="Group_17">
        <g
           id="Graphic_21">
          <path
             d="m 157.40376,64.35463 c -4.51544,1.65566 -6.02059,6.47213 -6.1711,18.06175 0,11.58962 3.76286,20.46998 11.43911,26.7916 l 5.41853,4.51543 -1.05361,67.43054 c -0.60206,37.02658 -0.43279,81.45053 -0.43279,99.21125 0.15051,17.76072 1.48096,25.81087 0.96423,26.6771 -0.51673,0.86624 -0.74924,0.8519 -1.29548,2.24988 -0.54623,1.398 -0.74111,4.91665 -1.34317,5.97026 -1.80618,2.85976 -10.3855,4.81646 -20.62049,4.81646 -13.54631,0 -13.3958,-0.1505 -12.3422,19.86793 1.05361,18.6638 3.46184,26.94211 12.19168,42.14407 6.02059,10.83706 14.14837,19.7174 24.23285,26.9421 l 6.92368,4.967 7.07418,-3.61235 c 13.84734,-7.2247 31.15652,-28.44725 37.32762,-45.30489 4.36491,-12.49271 5.87006,-42.59562 2.2577,-45.00386 -1.2041,-0.60206 -7.52572,-0.9031 -14.29887,-0.45154 -13.84735,0.75257 -17.91123,-0.90309 -17.91123,-7.52573 0.1505,-2.25773 -0.60207,-4.06389 -1.35464,-4.06389 -0.90309,0 -1.0536,-1.65566 -0.45154,-4.0639 0.45154,-2.25772 0.90308,-23.32976 0.90308,-46.96054 0,-23.6308 0.60206,-57.94812 1.35463,-76.16038 0.75257,-18.21227 1.50515,-41.09048 1.65567,-50.72342 l 0.30102,-17.6102 4.36493,-1.50515 c 9.78345,-3.46183 14.75043,-13.54631 14.75043,-29.80189 0,-13.094764 -0.60206,-14.59991 -6.1711,-16.85763 -4.96698,-1.806174 -43.04718,-1.806174 -47.71312,0 z m 44.64839,19.14311 v 0 c 1.35463,3.76286 0.0324,11.07628 -5.23563,15.59172 -5.26802,4.66595 -8.31069,5.17929 -16.89002,4.42672 -7.82676,-0.75258 -10.5036,-1.79899 -13.96543,-5.71237 -4.81647,-5.41852 -4.84889,-12.4999 -0.785,-14.75762 1.35463,-0.75257 8.27831,-1.35463 15.20198,-1.50514 7.07418,-0.15052 12.65728,-0.32694 13.24528,-0.31491 2.05799,0.04211 7.82676,0.61594 8.42882,2.2716 z"
             fill="#cccccc"
             id="path13" />
        </g>
        <g
           id="Graphic_20">
          <path
             d="m 205.56842,68.26801 v 0 c -1.50514,-1.806175 -6.02058,-2.25772 -23.48027,-2.40823 -26.03903,-0.30103 -27.14707,0 -27.14707,15.65351 0,18.21227 8.18222,27.99571 23.23369,29.04932 10.98756,0.75257 19.11535,-1.31407 24.8349,-8.23774 4.21441,-5.26801 5.17193,-7.56629 5.17193,-19.15592 0,-7.97727 -0.0268,-12.62352 -2.61318,-14.90094 z m -41.1588,11.31635 v 0 c 3.61235,-1.20412 32.69224,-1.47598 36.90665,-0.42238 3.46183,0.90309 4.93641,1.47598 4.18383,7.19554 -1.65566,14.75042 -10.235,21.22255 -26.34005,20.01843 -14.14837,-1.0536 -18.66381,-4.51543 -20.77101,-16.25557 -1.0536,-5.71955 0.75257,-8.88036 6.02058,-10.53602 z"
             fill="#ff0000"
             id="path16" />
        </g>
        <g
           id="Graphic_19">
          <path
             d="m 187.8077,131.57167 c -0.30103,9.59956 -0.75257,32.9985 -1.20412,52.04764 -0.45154,18.89915 -1.0536,52.34763 -1.0536,74.24664 -0.15051,21.89901 -0.94708,49.14638 -0.94708,49.14638 0,0 -1.0096,0.35137 -7.33122,0.35137 h -6.62264 L 170.348,295.66424 c -0.60205,-34.94841 1.35464,-179.84186 2.55876,-181.64178 0.30103,-0.44998 3.76286,-0.74997 7.82676,-0.44998 l 7.37521,0.59997 z"
             fill="#ff0000"
             id="path19" />
        </g>
        <g
           id="Graphic_18">
          <path
             d="m 185.39947,314.50986 c 0.75257,6.47214 6.32161,9.18139 18.96483,8.88036 6.0206,0 11.89066,-0.30102 13.09477,-0.60206 2.85978,-0.60206 3.01029,18.21227 0.30103,31.75858 -3.76286,18.21226 -18.6638,39.88636 -34.76887,50.5729 l -6.32161,4.21441 -6.1711,-4.21441 c -20.77101,-14.4494 -32.81217,-38.53174 -33.41423,-66.82847 l -0.30103,-14.4494 12.19168,-0.75257 c 13.09476,-0.9031 19.22816,-3.7486 21.48589,-9.61868 1.0536,-2.85977 0.51769,-3.40609 7.05061,-3.17507 7.44184,0.0564 7.43648,0.30105 7.88803,4.21441 z"
             fill="#ff0000"
             id="path22" />
        </g>
      </g>
    </g>
  </g>
  <circle
     style="fill:#3250b0;stroke-width:3;stroke-linecap:round;stroke-linejoin:round;stroke-miterlimit:3"
     id="hold-point"
     cx="48.155521"
     cy="74.617432"
     r="12.01901" />
</svg>

<?xml version="1.0" encoding="UTF-8" standalone="no"?>
<!DOCTYPE svg PUBLIC "-//W3C//DTD SVG 1.1//EN" "http://www.w3.org/Graphics/SVG/1.1/DTD/svg11.dtd">
<svg xmlns:dc="http://purl.org/dc/elements/1.1/" xmlns:xl="http://www.w3.org/1999/xlink" version="1.1" xmlns="http://www.w3.org/2000/svg" viewBox="130.5 63 94.5 351" width="94.5" height="351">
  <defs>
    <clipPath id="artboard_clip_path">
      <path d="M 130.5 63 L 225 63 L 225 414 L 130.5 414 Z"/>
    </clipPath>
  </defs>
  <metadata> Produced by OmniGraffle 7.7.1 
    <dc:date>2018-03-13 06:46:41 +0000</dc:date><dc:title>Traceable heraldic art http://heraldicart.org/credits.html</dc:title>
  </metadata>
  <g id="Spade" fill-opacity="1" stroke-dasharray="none" stroke="none" stroke-opacity="1" fill="#ffff00">
    <title>Spade</title>
    <g id="Spade: Layer 2" >
      <title>Layer 2</title>
      <g id="Group_17">
        <g id="Graphic_21">
          <path d="M 157.40376 64.35463 C 152.88832 66.01029 151.38317 70.82676 151.23266 82.41638 C 151.23266 94.006 154.99552 102.88636 162.67177 109.20798 L 168.0903 113.72341 L 167.03669 181.15395 C 166.43463 218.18053 166.6039 262.60448 166.6039 280.3652 C 166.75441 298.12592 168.08486 306.17607 167.56813 307.0423 C 167.0514 307.90854 166.81889 307.8942 166.27265 309.29218 C 165.72642 310.69018 165.53154 314.20883 164.92948 315.26244 C 163.1233 318.1222 154.54398 320.0789 144.30899 320.0789 C 130.76268 320.0789 130.91319 319.9284 131.96679 339.94683 C 133.0204 358.61063 135.42863 366.88894 144.15847 382.0909 C 150.17906 392.92796 158.30684 401.8083 168.39132 409.033 L 175.315 414 L 182.38918 410.38765 C 196.23652 403.16295 213.5457 381.9404 219.7168 365.08276 C 224.08171 352.59005 225.58686 322.48714 221.9745 320.0789 C 220.7704 319.47684 214.44878 319.1758 207.67563 319.62736 C 193.82828 320.37993 189.7644 318.72427 189.7644 312.10163 C 189.9149 309.8439 189.16233 308.03774 188.40976 308.03774 C 187.50667 308.03774 187.35616 306.38208 187.95822 303.97384 C 188.40976 301.71612 188.8613 280.64408 188.8613 257.0133 C 188.8613 233.3825 189.46336 199.06518 190.21593 180.85292 C 190.9685 162.64065 191.72108 139.76244 191.8716 130.1295 L 192.17262 112.5193 L 196.53755 111.01415 C 206.321 107.55232 211.28798 97.46784 211.28798 81.21226 C 211.28798 68.117496 210.68592 66.61235 205.11688 64.35463 C 200.1499 62.548456 162.0697 62.548456 157.40376 64.35463 Z M 202.05215 83.49774 L 202.05215 83.49774 C 203.40678 87.2606 202.08453 94.57402 196.81652 99.08946 C 191.5485 103.75541 188.50583 104.26875 179.9265 103.51618 C 172.09974 102.7636 169.4229 101.71719 165.96107 97.80381 C 161.1446 92.38529 161.11218 85.30391 165.17607 83.04619 C 166.5307 82.29362 173.45438 81.69156 180.37805 81.54105 C 187.45223 81.39053 193.03533 81.21411 193.62333 81.22614 C 195.68132 81.26825 201.45009 81.84208 202.05215 83.49774 Z" fill="#cccccc"/>
        </g>
        <g id="Graphic_20">
          <path d="M 205.56842 68.26801 L 205.56842 68.26801 C 204.06328 66.461835 199.54784 66.01029 182.08815 65.85978 C 156.04912 65.55875 154.94108 65.85978 154.94108 81.51329 C 154.94108 99.72556 163.1233 109.509 178.17477 110.56261 C 189.16233 111.31518 197.29012 109.24854 203.00967 102.32487 C 207.22408 97.05686 208.1816 94.75858 208.1816 83.16895 C 208.1816 75.19168 208.1548 70.54543 205.56842 68.26801 Z M 164.40962 79.58436 L 164.40962 79.58436 C 168.02197 78.38024 197.10186 78.10838 201.31627 79.16198 C 204.7781 80.06507 206.25268 80.63796 205.5001 86.35752 C 203.84444 101.10794 195.2651 107.58007 179.16005 106.37595 C 165.01168 105.32235 160.49624 101.86052 158.38904 90.12038 C 157.33544 84.40083 159.14161 81.24002 164.40962 79.58436 Z" fill="#ff0000"/>
        </g>
        <g id="Graphic_19">
          <path d="M 187.8077 131.57167 C 187.50667 141.17123 187.05513 164.57017 186.60358 183.61931 C 186.15204 202.51846 185.54998 235.96694 185.54998 257.86595 C 185.39947 279.76496 184.6029 307.01233 184.6029 307.01233 C 184.6029 307.01233 183.5933 307.3637 177.27168 307.3637 L 170.64904 307.3637 L 170.348 295.66424 C 169.74595 260.71583 171.70264 115.82238 172.90676 114.02246 C 173.20779 113.57248 176.66962 113.27249 180.73352 113.57248 L 188.10873 114.17245 L 187.8077 131.57167 Z" fill="#ff0000"/>
        </g>
        <g id="Graphic_18">
          <path d="M 185.39947 314.50986 C 186.15204 320.982 191.72108 323.69125 204.3643 323.39022 C 210.3849 323.39022 216.25496 323.0892 217.45907 322.78816 C 220.31885 322.1861 220.46936 341.00043 217.7601 354.54674 C 213.99724 372.759 199.0963 394.4331 182.99123 405.11964 L 176.66962 409.33405 L 170.49852 405.11964 C 149.72751 390.67024 137.68635 366.5879 137.08429 338.29117 L 136.78326 323.84177 L 148.97494 323.0892 C 162.0697 322.1861 168.2031 319.3406 170.46083 313.47052 C 171.51443 310.61075 170.97852 310.06443 177.51144 310.29545 C 184.95328 310.35185 184.94792 310.5965 185.39947 314.50986 Z" fill="#ff0000"/>
        </g>
      </g>
    </g>
  </g>
</svg>
